svgs/sharp-regular/circle-h.svg

<svg xmlns="http://www.w3.org/2000/svg" viewBox="0 0 512 512"><!--! Font Awesome Pro 6.6.0 by @fontawesome - https://fontawesome.com License - https://fontawesome.com/license (Commercial License) Copyright 2024 Fonticons, Inc. --><path d="M256 48a208 208 0 1 1 0 416 208 208 0 1 1 0-416zm0 464A256 256 0 1 0 256 0a256 256 0 1 0 0 512zM368 152l0-24-48 0 0 24 0 80-128 0 0-80 0-24-48 0 0 24 0 80 0 48 0 80 0 24 48 0 0-24 0-80 128 0 0 80 0 24 48 0 0-24 0-104 0-104z"/></svg>

<svg xmlns="http://www.w3.org/2000/svg" viewBox="0 0 512 512"><!--! Font Awesome Pro 6.4.2 by @fontawesome - https://fontawesome.com License - https://fontawesome.com/license (Commercial License) Copyright 2023 Fonticons, Inc. --><path d="M256 48a208 208 0 1 1 0 416 208 208 0 1 1 0-416zm0 464A256 256 0 1 0 256 0a256 256 0 1 0 0 512zM368 152V128H320v24 80H192V152 128H144v24 80 48l0 80v24h48V360l0-80H320v80 24h48V360 256 152z"/></svg>
